X: 1020
T: Poet Laureate **
R: Jig
M: 6/8
L: 1/8
K: D
"D"F3-FEF|"Em"G3-GFG|"D/F#"A3-ABc|"G"def"A"ecA|"Bm"f2d"A"e2c|"G"dcB"D/F#"c2A|
"G"Bcd"A"ecA|1d3-dAG:|2"D"d3dcd||:"A"e2eeag|"D"fga dcd|"A"e2e eag|
"D"g3f3|"A"e2e eag|"D"f3fga|"G"bag fed|
|1"A"cde Acd:|2 "A"cde ABG||"A"cBA GFE|"D"D3-D3|]
